svgs/solid/bird.svg

<svg xmlns="http://www.w3.org/2000/svg" viewBox="0 0 512 512"><!--! Font Awesome Pro 6.2.0 by @fontawesome - https://fontawesome.com License - https://fontawesome.com/license (Commercial License) Copyright 2022 Fonticons, Inc. --><path d="M0 192v-3.6C0 172.7 12.7 160 28.4 160H224c17.7 0 32-14.3 32-32V96c0-53 43-96 96-96c47.5 0 86.9 34.5 94.6 79.7l57.6 34.6c4.8 2.9 7.8 8.1 7.8 13.7s-2.9 10.8-7.8 13.7L448 175.5V192c0 93.9-57.7 174.3-139.7 207.6l40.9 77.2c6.2 11.7 1.7 26.2-10 32.4s-26.2 1.7-32.4-10l-45.7-86.3C249 415 236.6 416 224 416c-1 0-2 0-3 0l32.2 60.8c6.2 11.7 1.7 26.2-10 32.4s-26.2 1.7-32.4-10l-48.6-91.9C68.5 380.5 0 294.3 0 192zm376-72c0-13.3-10.7-24-24-24s-24 10.7-24 24s10.7 24 24 24s24-10.7 24-24z"/></svg>

<svg xmlns="http://www.w3.org/2000/svg" viewBox="0 0 512 512"><!--! Font Awesome Pro 6.1.2 by @fontawesome - https://fontawesome.com License - https://fontawesome.com/license (Commercial License) Copyright 2022 Fonticons, Inc. --><path d="M0 192V188.4C0 172.7 12.74 160 28.44 160H224C241.7 160 256 145.7 256 128V96C256 42.98 298.1 0 352 0C399.5 0 438.9 34.45 446.6 79.72L504.2 114.3C509 117.2 512 122.4 512 128C512 133.6 509 138.8 504.2 141.7L448 175.5V192C448 285.9 390.3 366.3 308.3 399.6L349.2 476.8C355.4 488.5 350.9 503 339.2 509.2C327.5 515.4 312.1 510.9 306.8 499.2L261.1 412.9C249 414.1 236.6 416 224 416C223 416 222 415.1 221 415.1L253.2 476.8C259.4 488.5 254.9 503 243.2 509.2C231.5 515.4 216.1 510.9 210.8 499.2L162.1 407.4C68.52 380.5 0 294.3 0 192V192zM352 96C338.7 96 328 106.7 328 120C328 133.3 338.7 144 352 144C365.3 144 376 133.3 376 120C376 106.7 365.3 96 352 96z"/></svg>
